humanity-icon-theme/Humanity/actions/22/gtk-info.svg

<?xml version="1.0" encoding="UTF-8" standalone="no"?>
<!-- Created with Inkscape (http://www.inkscape.org/) -->
<svg
   xmlns:svg="http://www.w3.org/2000/svg"
   xmlns="http://www.w3.org/2000/svg"
   xmlns:xlink="http://www.w3.org/1999/xlink"
   version="1.0"
   width="22"
   height="22"
   id="svg2463">
  <defs
     id="defs2465">
    <linearGradient
       id="linearGradient2490-182-124">
      <stop
         id="stop2788"
         style="stop-color:#1f4b6a;stop-opacity:1"
         offset="0" />
      <stop
         id="stop2790"
         style="stop-color:#4083c2;stop-opacity:1"
         offset="1" />
    </linearGradient>
    <linearGradient
       x1="18.379412"
       y1="44.980297"
       x2="18.379412"
       y2="3.0816143"
       id="linearGradient2458"
       xlink:href="#linearGradient2490-182-124"
       gradientUnits="userSpaceOnUse"
       gradientTransform="matrix(0.5160413,0,0,0.5160413,-1.3849489,-1.3850332)" />
    <linearGradient
       id="linearGradient3242-187-536">
      <stop
         id="stop2778"
         style="stop-color:#8badea;stop-opacity:1"
         offset="0" />
      <stop
         id="stop2780"
         style="stop-color:#6396cd;stop-opacity:1"
         offset="0.26238" />
      <stop
         id="stop2782"
         style="stop-color:#3b7caf;stop-opacity:1"
         offset="0.66093999" />
      <stop
         id="stop2784"
         style="stop-color:#194c70;stop-opacity:1"
         offset="1" />
    </linearGradient>
    <radialGradient
       cx="23.895569"
       cy="3.9900031"
       r="20.397499"
       fx="23.895569"
       fy="3.9900031"
       id="radialGradient2456"
       xlink:href="#linearGradient3242-187-536"
       gradientUnits="userSpaceOnUse"
       gradientTransform="matrix(0,1.2316137,-1.6257082,0,17.486623,-29.720825)" />
    <linearGradient
       id="linearGradient4873">
      <stop
         id="stop4875"
         style="stop-color:#ffffff;stop-opacity:1"
         offset="0" />
      <stop
         id="stop4877"
         style="stop-color:#ffffff;stop-opacity:0"
         offset="1" />
    </linearGradient>
    <linearGradient
       x1="63.397362"
       y1="-12.489107"
       x2="63.397362"
       y2="5.4675598"
       id="linearGradient2453"
       xlink:href="#linearGradient4873"
       gradientUnits="userSpaceOnUse"
       gradientTransform="matrix(1.0862728,0,0,1.0862481,-56.566568,14.813596)" />
  </defs>
  <g
     id="layer1">
    <path
       d="M 11.000044,0.50174288 C 5.2074911,0.50174288 0.50182712,5.2074045 0.50182712,10.999957 C 0.50182712,16.792511 5.2074911,21.498176 11.000044,21.498173 C 16.792594,21.498173 21.498263,16.792511 21.498257,10.999957 C 21.498257,5.2074045 16.792594,0.50174288 11.000044,0.50174288 z"
       id="path2555"
       style="fill:url(#radialGradient2456);fill-opacity:1;stroke:url(#linearGradient2458);stroke-width:1.00365424;stroke-linecap:round;stroke-linejoin:round;stroke-miterlimit:4;stroke-dasharray:none;stroke-dashoffset:0;stroke-opacity:1" />
    <path
       d="M 20.500041,10.999621 C 20.500041,16.246495 16.246432,20.499957 11.000162,20.499957 C 5.7534095,20.499957 1.500042,16.246448 1.500042,10.999621 C 1.500042,5.7529897 5.7534095,1.4999586 11.000162,1.4999586 C 16.246432,1.4999586 20.500041,5.7529897 20.500041,10.999621 L 20.500041,10.999621 z"
       id="path2463"
       style="opacity:0.4;fill:none;fill-opacity:1;fill-rule:nonzero;stroke:url(#linearGradient2453);stroke-width:0.99999994;stroke-miterlimit:4;stroke-dasharray:none;stroke-opacity:1" />
    <path
       d="M 8.0000421,9.8512699 C 8.1338981,10.215152 8.2845631,10.510106 8.6054941,10.106797 C 9.0033771,9.8700659 10.336537,8.8324035 10.203138,9.8488179 C 9.7762611,11.72963 9.2566571,13.590663 8.8593608,15.47727 C 8.4439321,16.510272 9.3872911,17.444665 10.372226,16.772899 C 11.41915,16.341315 12.320024,15.638338 13.240369,14.993463 C 13.114794,14.685498 13.031096,14.243109 12.68412,14.645857 C 12.228523,14.852647 11.233447,15.827585 11.048581,15.023479 C 11.431279,12.986899 12.140331,11.025709 12.59357,9.0053679 C 13.010667,8.0764195 12.329465,6.9026595 11.309784,7.6710975 C 10.08818,8.2031455 9.0665991,9.0722679 8.0000421,9.8512699 z M 12.533807,3.0015539 C 11.28741,2.9354086 10.635751,4.9446354 11.820194,5.4944504 C 12.781124,5.8885375 13.827404,4.9029805 13.592653,3.9181827 C 13.519801,3.4053901 13.059411,2.9843044 12.533808,3.0015539 L 12.533807,3.0015539 z"
       id="text3482"
       style="font-size:40px;font-style:normal;font-variant:normal;font-weight:bold;font-stretch:normal;text-align:start;line-height:100%;writing-mode:lr-tb;text-anchor:start;opacity:0.2;fill:#000000;fill-opacity:1;stroke:none;stroke-width:1px;stroke-linecap:butt;stroke-linejoin:miter;stroke-opacity:1;font-family:URW Palladio L;-inkscape-font-specification:URW Palladio L Bold" />
    <path
       d="M 8.0000421,10.85127 C 8.1338981,11.215152 8.2845631,11.510106 8.6054941,11.106797 C 9.0033771,10.870066 10.336537,9.8324039 10.203138,10.848818 C 9.7762611,12.72963 9.2566571,14.590663 8.8593608,16.47727 C 8.4439321,17.510272 9.3872911,18.444665 10.372226,17.772899 C 11.41915,17.341315 12.320024,16.638338 13.240369,15.993463 C 13.114794,15.685498 13.031096,15.243109 12.68412,15.645857 C 12.228523,15.852647 11.233447,16.827585 11.048581,16.023479 C 11.431279,13.986899 12.140331,12.025709 12.59357,10.005368 C 13.010667,9.0764199 12.329465,7.9026595 11.309784,8.6710975 C 10.08818,9.2031459 9.0665991,10.072268 8.0000421,10.85127 z M 12.533807,4.0015539 C 11.28741,3.9354086 10.635751,5.9446355 11.820194,6.4944505 C 12.781124,6.8885365 13.827404,5.9029805 13.592653,4.9181827 C 13.519801,4.40539 13.059411,3.9843044 12.533808,4.0015539 L 12.533807,4.0015539 z"
       id="path3536"
       style="font-size:40px;font-style:normal;font-variant:normal;font-weight:bold;font-stretch:normal;text-align:start;line-height:100%;writing-mode:lr-tb;text-anchor:start;fill:#ffffff;fill-opacity:1;stroke:none;stroke-width:1px;stroke-linecap:butt;stroke-linejoin:miter;stroke-opacity:1;font-family:URW Palladio L;-inkscape-font-specification:URW Palladio L Bold" />
  </g>
</svg>

<?xml version="1.0" encoding="UTF-8" standalone="no"?>
<!-- Created with Inkscape (http://www.inkscape.org/) -->
<svg id="svg2463" xmlns="http://www.w3.org/2000/svg" height="22" width="22" version="1.0" xmlns:xlink="http://www.w3.org/1999/xlink">
 <defs id="defs2465">
  <linearGradient id="linearGradient2458" y2="3.0816" gradientUnits="userSpaceOnUse" x2="18.379" gradientTransform="matrix(.51604 0 0 .51604 -1.3849 -1.385)" y1="44.98" x1="18.379">
   <stop id="stop2788" style="stop-color:#1f4b6a" offset="0"/>
   <stop id="stop2790" style="stop-color:#4083c2" offset="1"/>
  </linearGradient>
  <radialGradient id="radialGradient2456" gradientUnits="userSpaceOnUse" cy="3.99" cx="23.896" gradientTransform="matrix(0 1.2316 -1.6257 0 17.487 -29.721)" r="20.397">
   <stop id="stop2778" style="stop-color:#8badea" offset="0"/>
   <stop id="stop2780" style="stop-color:#6396cd" offset=".26238"/>
   <stop id="stop2782" style="stop-color:#3b7caf" offset=".66094"/>
   <stop id="stop2784" style="stop-color:#194c70" offset="1"/>
  </radialGradient>
  <linearGradient id="linearGradient2453" y2="5.4676" gradientUnits="userSpaceOnUse" x2="63.397" gradientTransform="matrix(1.0863 0 0 1.0862 -56.567 14.814)" y1="-12.489" x1="63.397">
   <stop id="stop4875" style="stop-color:#fff" offset="0"/>
   <stop id="stop4877" style="stop-color:#fff;stop-opacity:0" offset="1"/>
  </linearGradient>
 </defs>
 <g id="layer1">
  <path id="path2555" style="stroke-linejoin:round;stroke:url(#linearGradient2458);stroke-linecap:round;stroke-width:1.0037;fill:url(#radialGradient2456)" d="m11 0.50174c-5.7925 0-10.498 4.7057-10.498 10.498-0.00017 5.793 4.7055 10.498 10.498 10.498 5.793 0 10.498-4.705 10.498-10.498 0-5.7926-4.705-10.498-10.498-10.498z"/>
  <path id="path2463" style="opacity:.4;stroke:url(#linearGradient2453);fill:none" d="m20.5 11c0 5.246-4.254 9.5-9.5 9.5-5.2466 0-9.5-4.254-9.5-9.5 0-5.247 4.2534-9.5 9.5-9.5 5.246 0 9.5 4.253 9.5 9.5z"/>
  <path id="text3482" style="opacity:.2" d="m8 9.8513c0.1339 0.3637 0.2846 0.6587 0.6055 0.2557 0.3979-0.2369 1.7315-1.2746 1.5975-0.2582-0.4267 1.8812-0.9463 3.7422-1.3436 5.6282-0.4155 1.033 0.5279 1.968 1.5126 1.296 1.047-0.432 1.948-1.135 2.868-1.78-0.125-0.308-0.209-0.75-0.556-0.347-0.455 0.207-1.451 1.182-1.635 0.377 0.382-2.036 1.091-3.997 1.545-6.0176 0.417-0.929-0.265-2.1027-1.284-1.3343-1.222 0.532-2.2434 1.4012-3.31 2.1802zm4.534-6.8497c-1.247-0.0662-1.898 1.943-0.714 2.4929 0.961 0.394 2.007-0.5915 1.773-1.5763-0.073-0.5128-0.534-0.9339-1.059-0.9166z"/>
  <path id="path3536" style="fill:#fff" d="m8 10.851c0.1339 0.364 0.2846 0.659 0.6055 0.256 0.3979-0.237 1.7315-1.2746 1.5975-0.258-0.4267 1.881-0.9463 3.742-1.3436 5.628-0.4155 1.033 0.5279 1.968 1.5126 1.296 1.047-0.432 1.948-1.135 2.868-1.78-0.125-0.308-0.209-0.75-0.556-0.347-0.455 0.207-1.451 1.182-1.635 0.377 0.382-2.036 1.091-3.997 1.545-6.018 0.417-0.9286-0.265-2.1023-1.284-1.3339-1.222 0.532-2.2434 1.4009-3.31 2.1799zm4.534-6.8494c-1.247-0.0662-1.898 1.943-0.714 2.4929 0.961 0.394 2.007-0.5915 1.773-1.5763-0.073-0.5128-0.534-0.9339-1.059-0.9166z"/>
 </g>
</svg>
